X: 176
P: Longways for as many as will
M: C|
L: 1/8
K: C
[|\
c2 (c/d/)e d3 c | cA (A/B/)c G2 E2 |\
(EG) (Gc) (cd) (de) | (fe)(dc) d4 |\
c2 (c/d/)e d3c | cG (A/B/)c G2 E2 |
(EG) (Gc) (cd) (de) | (g/f/)e (d>c) c4 |][|\
e2 (e/f/)g ec ec | B2 (B/c/)d dB dB |\
e2 ec d2 dB | c2 (d/c/)(B/A/) A3 G |
E2 G2 (G/A/)G cG | EG (G/A/)G G3 G |\

